X:1
T:RVW2/1/64 Nine Joys Of Mary
T:RVW2/1/64 Nine Joys Of Mary
T:Transcribed by Simon Furey and Lewis Jones
C:Transcribed by Simon Furey and Lewis Jones
L:1/8
Q:1/4=120
M:4/4
K:D
V:1 treble 
V:1
"^Editorial suggestion" D2 |: E2 B2 BcBA | G2 F2 E2 D2 | E2 EF G2 A2 |"^1" B6 GF :|"^2" B6 Bc || %6
 dcBA B2 Bc |[M:6/4] d2 e2 B4 A4 |[M:4/4] G2 E2 EFGE | A4 G2 A2 | B3 c d2 e2 | B3 A G2 F2 | %12
 E4 GF E2 | A4 G2 A2 | B3 c d2 e2 | B3 A G2 F2 | E6 |] %17

